X: 628
T: Efem Şimdi Eller Sözüne Kandı
C: Lavtacı Hristo
O: Turkey
F: http://compmusic.upf.edu/node/140
N: tahir--sarki--aksak--efem_simdi--lavtaci_hristo
N: makam= tahir
N: form= sarki
N: usul= aksak = 9/8
M: 9/8
L: 1/16
K: C _2/4B ^3/4f  
Q: 1/4=180
%%MIDI tuningsystem comma53
g2g4a2 a4 a4 z2 | a3gg3ff3ee4f2  | d2e2 f2g2 a2b2 g2f2 ba | 
w:  E fem  *  şim di   |  el *  ler  *  sö *  zü  |  ne  kan  | 
a6 gfag fed4z2  | g2g4a2 a4 a4 z2 | a3gg3ff3ee4f2  | 
w:  dı   SAZ  |  E fem  *  şim di   |  el *  ler  *  sö *  zü  | 
d2e2 f2g2 a2b2 g2f2 ba | a6 abag fga4z2  | \
w:  ne  kan  |  dı   SAZ  | 
g2g4a2 a4 ag=fe d2 | 
w:  Ve fa *  sız dan   | 
e2 =fge2 d2d2 {f}edd4z2  | c3d d2d2 z4 z4 z2 | \
w:  be *  *  nim  *  ca *  *  *  nım   |  am man  e fe   | 
c2 d2e2 {=f}edd4de fga2  | 
w:  pek  *  yan *  *  *  dı   SAZ  | 
g2g4a2 a4 ag=fe d2 | e2 =fge2 d2d2 {f}edd2 c2B2  | \
w:  Ve fa *  sız dan   |  be *  *  nim  *  ca *  *  *  nım   | 
c3d d2d2 c2d2 e2=fe d2 | 
w:  am man  e fe  e fe  e fe   | 
c3BB3AA4c'4bd'  | c'4 c'2c'2 c'4 c'4 b2 | \
w:  pek  *  yan *  dı   SAZ  |  *  Geç ti  mu hab  | 
b4b2 a2a2 {c'}baa6  | 
w:  be tin  *  o  *  *  *  bir   | 
d2e2 f2g2 a2b2 g2f2 {c'}ba | c'4c'4c'4c'4z2  | \
w:  za man  |  dı   SAZ  | 
c'4 c'2c'2 c'4 c'4 b2 | 
w:  *  Geç ti  mu hab  | 
b4b2 a2a2 {c'}baa6  | d2e2 f2g2 a2b2 g2f2 {c'}ba | \
w:  be tin  *  o  *  *  *  bir   |  za man  | 
a6 abag fga4z2  | 
w:  dı   SAZ  | 
g2g4a2 a4 ag=fe d2 | e2 =fge2 d2d2 {f}edd4z2  | \
w:  Ve fa *  sız dan   |  be *  *  nim  *  ca *  *  *  nım   | 
c3d d2d2 z4 z4 z2 | 
w:  am man  e fe   | 
c2 d2e2 {=f}edd4de fga2  | g2g4a2 a4 ag=fe d2 | \
w:  pek  *  yan *  *  *  dı   SAZ  |  Ve fa *  sız dan   | 
e2 =fge2 d2d2 {f}edd2 c2B2  | 
w:  be *  *  nim  *  ca *  *  *  nım   | 
c3d d2d2 c2d2 e2=fe d2 | c3BB3AA4z6  | |


